contributed-vectors/libreoffice_impress_remote.svg

<svg xmlns="http://www.w3.org/2000/svg" xmlns:xlink="http://www.w3.org/1999/xlink" xml:space="preserve" viewBox="0 0 192 192"><image xlink:href="30E0AF75.jpg" width="241" height="241" overflow="visible" transform="translate(-274.333 -179)"/><path fill="#E0B79A" d="M177.7 69.3v118.1l-.1.1c-.4 1.6-1.5 2.7-3 3.2l-.6.3H25.2l-.6-.3c-1.6-.5-2.6-1.6-3.1-3.2l-.3-.6V6c.1-.2.3-.5.4-.7.6-1.6 1.7-2.6 3.4-3 .1 0 .2-.1.3-.1h85c.2.1.5.2.7.2.9.3 1.6.9 2.3 1.6l62.4 62.4c.8.8 1.7 1.7 2 2.9zm-9.2 112.3V73.1c0-.6-.2-1-.6-1.4C148 51.9 128.2 32 108.3 12.1c-.5-.5-1.1-.8-1.8-.8H31c-.2 0-.3.1-.5.1v170.1c46 .1 92 .1 138 .1zM133.1 2.1H174c.1.1.3.1.4.2 1.3.4 2.3 1.2 3 2.4.2.3.3.7.4 1v41.5c-.1.3-.2.7-.4 1-1.3 2.6-4.8 3.4-7.1 1.5l-.9-.9c-12.8-12.8-25.5-25.6-38.3-38.3l-.7-.7c-2.3-2.6-1.1-6.7 2.3-7.6.1 0 .2 0 .4-.1z"/><path fill="#FFF" d="M168.5 181.6H30.6V11.5c.2 0 .3-.1.5-.1h75.5c.8 0 1.3.2 1.8.8L168 71.8c.4.4.6.8.6 1.4v107.7c-.1.1-.1.4-.1.7z"/><path fill="#B1B5BE" d="M134.8 118.4c-.1 7.1-.2 14.2-.2 21.2 0 17.1.1 34.2.1 51.3H65c.1-1.6.3-3.3.3-4.9.1-21.7.1-43.4.1-65 0-5.8.9-6.6 6.6-6.6 18.7 0 37.4 0 56.2-.1 3.2 0 5.6.8 6.6 4.1z"/><path fill="#8DBCFF" d="M60.6 83.2c4.5-13.1 21.3-28.5 44.4-25.8 14.9 1.7 32.4 15.1 33.1 25.5-11.1-10.1-24-15-38.7-15-14.6 0-27.3 5.4-38.8 15.3z"/><path fill="#8DBCFF" d="M128.7 93.5c-19.5-13.7-38.7-14-57.6.5 1-6.7 11.3-15.5 21.2-17.9 12.7-3 28.4 2 36.4 17.4z"/><path fill="#8DBCFF" d="M118.4 102c-9.8-8.1-24.8-9.5-37.4-.2 1.9-6.6 10.5-12 19-11.9 8.2.1 16.5 5.4 18.4 12.1z"/></svg>

<?xml version="1.0" encoding="utf-8"?>
<!-- Generator: Adobe Illustrator 17.1.0, SVG Export Plug-In . SVG Version: 6.00 Build 0)  -->
<!DOCTYPE svg PUBLIC "-//W3C//DTD SVG 1.1//EN" "http://www.w3.org/Graphics/SVG/1.1/DTD/svg11.dtd">
<svg version="1.1" id="Слой_1" xmlns="http://www.w3.org/2000/svg" xmlns:xlink="http://www.w3.org/1999/xlink" x="0px" y="0px"
	 viewBox="0 0 192 192" enable-background="new 0 0 192 192" xml:space="preserve">
<image overflow="visible" width="241" height="241" xlink:href="30E0AF75.jpg"  transform="matrix(1 0 0 1 -274.3333 -179)">
</image>
<path fill="#E0B79A" d="M177.7,69.3c0,39.4,0,78.7,0,118.1c0,0-0.1,0.1-0.1,0.1c-0.4,1.6-1.5,2.7-3,3.2c-0.2,0.1-0.4,0.2-0.6,0.3
	c-49.6,0-99.2,0-148.8,0c-0.2-0.1-0.4-0.2-0.6-0.3c-1.6-0.5-2.6-1.6-3.1-3.2c-0.1-0.2-0.2-0.4-0.3-0.6c0-60.3,0-120.6,0-180.9
	c0.1-0.2,0.3-0.5,0.4-0.7c0.6-1.6,1.7-2.6,3.4-3c0.1,0,0.2-0.1,0.3-0.1c28.3,0,56.7,0,85,0c0.2,0.1,0.5,0.2,0.7,0.2
	c0.9,0.3,1.6,0.9,2.3,1.6c20.8,20.8,41.6,41.6,62.4,62.4C176.5,67.2,177.4,68.1,177.7,69.3z M168.5,181.6c0-0.3,0-0.6,0-0.8
	c0-35.9,0-71.8,0-107.7c0-0.6-0.2-1-0.6-1.4c-19.9-19.8-39.7-39.7-59.6-59.6c-0.5-0.5-1.1-0.8-1.8-0.8c-25,0-49.9,0-74.9,0
	c-0.2,0-0.4,0-0.6,0c-0.2,0-0.3,0.1-0.5,0.1c0,56.7,0,113.4,0,170.1C76.5,181.6,122.5,181.6,168.5,181.6z"/>
<path fill="#E0B79A" d="M133.1,2.1c13.6,0,27.3,0,40.9,0c0.1,0.1,0.3,0.1,0.4,0.2c1.3,0.4,2.3,1.2,3,2.4c0.2,0.3,0.3,0.7,0.4,1
	c0,13.8,0,27.7,0,41.5c-0.1,0.3-0.2,0.7-0.4,1c-1.3,2.6-4.8,3.4-7.1,1.5c-0.3-0.3-0.6-0.6-0.9-0.9c-12.8-12.8-25.5-25.6-38.3-38.3
	c-0.2-0.2-0.4-0.4-0.7-0.7c-2.3-2.6-1.1-6.7,2.3-7.6C132.8,2.2,132.9,2.2,133.1,2.1z"/>
<path fill="#FFFFFF" d="M168.5,181.6c-46,0-91.9,0-137.9,0c0-56.7,0-113.4,0-170.1c0.2,0,0.3-0.1,0.5-0.1c0.2,0,0.4,0,0.6,0
	c25,0,49.9,0,74.9,0c0.8,0,1.3,0.2,1.8,0.8c19.9,19.9,39.7,39.7,59.6,59.6c0.4,0.4,0.6,0.8,0.6,1.4c0,35.9,0,71.8,0,107.7
	C168.5,181,168.5,181.3,168.5,181.6z"/>
<path fill="#B1B5BE" d="M134.8,118.4c-0.1,7.1-0.2,14.2-0.2,21.2c0,17.1,0.1,34.2,0.1,51.3c-23.2,0-46.5,0-69.7,0
	c0.1-1.6,0.3-3.3,0.3-4.9c0.1-21.7,0.1-43.4,0.1-65c0-5.8,0.9-6.6,6.6-6.6c18.7,0,37.4,0,56.2-0.1
	C131.4,114.3,133.8,115.1,134.8,118.4z"/>
<path fill="#8DBCFF" d="M60.6,83.2c4.5-13.1,21.3-28.5,44.4-25.8c14.9,1.7,32.4,15.1,33.1,25.5c-11.1-10.1-24-15-38.7-15
	C84.8,67.9,72.1,73.3,60.6,83.2z"/>
<path fill="#8DBCFF" d="M128.7,93.5C109.2,79.8,90,79.5,71.1,94c1-6.7,11.3-15.5,21.2-17.9C105,73.1,120.7,78.1,128.7,93.5z"/>
<path fill="#8DBCFF" d="M118.4,102c-9.8-8.1-24.8-9.5-37.4-0.2c1.9-6.6,10.5-12,19-11.9C108.2,90,116.5,95.3,118.4,102z"/>
</svg>
